X: 1647
T: The Belfast Hornpipe
M:C|
L:1/8
B:O'Neill's 1647
N:"collected by J. O'Neill"
Z:I do not know how to encode the da capo in the original.
K:G
g>a \
| b>gd>B G>Bd>g | f>ec>A E2 e2 | d>cA>FD>cB>A | G>AB>c d2 g>a |
| b>gd>B G>Bd>g | f>ec>A E2 e2 | d>cA>FD>cB>A | G2 B2 G2 :|
K:D
a2 \
| g>ec>A ^G>AB>c | d>ef>^g a2 b2 | a>ge>c A>gf>e | f>dA>F D2a2 |
| g>ec>A ^G>AB>c | d>ef>^g a2 b2 | a>ge>c A>gf>e |1 d2 f2 d2 :|2 d2 c2 =c2 :|


